svg/Filled/arrow-redo_filled.svg

<svg viewBox="0 0 24 24" xmlns="http://www.w3.org/2000/svg" width="24" height="24"><path d="M12.49 3.1c.4-.18.88-.11 1.21.19l6.34 5.62q.65.56 1.07 1 .46.44.72 1.1a3 3 0 0 1 0 2 3 3 0 0 1-.72 1.09q-.43.44-1.07 1l-6.34 5.62a1.13 1.13 0 0 1-1.88-.85v-3.34c-2 .1-3.38.46-4.46 1a10 10 0 0 0-3.34 3.04 1.13 1.13 0 0 1-2.02-.7c0-2.88.49-5.97 2.15-8.36C5.7 9.27 8.18 7.8 11.82 7.54V4.13l.01-.17c.06-.37.3-.7.66-.86"/></svg>

<svg viewBox="0 0 24 24" xmlns="http://www.w3.org/2000/svg" width="24" height="24"><path d="M12.49 3.1C12.89 2.92 13.37 2.99 13.7 3.29L20.04 8.91Q20.69 9.47 21.11 9.91Q21.57 10.35 21.83 11.01A3 3 0 0 1 21.83 13.01A3 3 0 0 1 21.11 14.1Q20.68 14.54 20.04 15.1L13.7 20.72A1.13 1.13 0 0 1 11.82 19.87L11.82 16.53C9.82 16.63 8.44 16.99 7.36 17.53A10 10 0 0 0 4.02 20.57A1.13 1.13 0 0 1 2 19.87C2 16.99 2.49 13.9 4.15 11.51C5.7 9.27 8.18 7.8 11.82 7.54L11.83 3.96C11.89 3.59 12.13 3.26 12.49 3.1"/></svg>
